static/assets/items/titanium.svg

<svg xmlns="http://www.w3.org/2000/svg" viewBox="0 0 32 32"><path d="M0 .5V0h32v32H0V.5M21.5 31q.5 0 .875-.125T23 30.5l.5-.5.5-.5.5-.5.5-.5.5-.5.5-.5q.25-.25.625-.375l.75-.25q.375-.125.625-.375l.5-.5.5-.5.5-.5.5-.5.5-.5q.25-.25.375-.625T31 22.5v-1-1-1-1q0-.5-.125-.875T30.5 17l-.5-.5-.5-.5q-.25-.25-.375-.625l-.25-.75Q28.75 14.25 28.5 14l-.5-.5-.5-.5-.5-.5-.5-.5-.5-.5-.5-.5-.5-.5-.5-.5-.5-.5-.5-.5-.5-.5-.5-.5-.5-.5-.5-.5-.5-.5-.5-.5-.5-.5-.5-.5-.5-.5-.5-.5-.5-.5-.5-.5-.5-.5-.5-.5-.5-.5q-.25-.25-.625-.375T14.5 1h-1q-.5 0-.875.125T12 1.5l-.5.5-.5.5-.5.5-.5.5-.5.5-.5.5-.5.5-.5.5-.5.5-.5.5-.5.5-.5.5-.5.5-.5.5-.5.5-.5.5-.5.5-.5.5-.5.5-.5.5-.5.5q-.25.25-.375.625T1 13.5v2q0 .5.125.875T1.5 17l.5.5.5.5.5.5.5.5.5.5.5.5.5.5.5.5.5.5.5.5.5.5.5.5.5.5.5.5.5.5.5.5.5.5.5.5.5.5.5.5.5.5.5.5.5.5.5.5.5.5.5.5.5.5q.25.25.625.375T16.5 31h5" fill="none"/><path d="M12 1.5q.25-.25.625-.375T13.5 1h1q.5 0 .875.125T16 1.5l.5.5.5.5.5.5.5.5.5.5.5.5.5.5.5.5.5.5.5.5.5.5.5.5.5.5.5.5.5.5.5.5.5.5.5.5.25.25L25 11q-.25.25-.125.625T24.5 12q-.5 0-.5.5t-.5.5-.5.5-.5.5-.5.5-.5.5h-1q-.5 0-.5-.5t-.5-.5-.5-.5-.5-.5-.5-.5-.5-.5-.5-.5-.5-.5-.5-.5-.5-.5-.5-.5-.5-.5-.5-.5-.5-.5-.5-.5-.5-.5h-1q-.5 0-.5.5t-.5.5-.5.5q0 .5.5.5t.5.5.5.5.5.5.5.5.5.5.5.5.5.5.5.5.5.5.5.5.5.5.5.5.5.5.5.5.5.5v1q0 .5-.5.5t-.5.5-.5.5h-2q-.5 0-.5-.5t-.5-.5-.5-.5-.5-.5-.5-.5-.5-.5-.5-.5-.5-.5-.5-.5-.5-.5-.5-.5-.5-.5-.5-.5-.5-.5-.5-.5-.5-.5-.5-.5-.5-.5q-.5 0-.375-.375T5 9l-.25-.25L5 8.5l.5-.5.5-.5.5-.5.5-.5.5-.5.5-.5.5-.5.5-.5.5-.5.5-.5.5-.5.5-.5.5-.5.5-.5M4.9375 8.5625L4.75 8.75l-.0625.0625-.0625.0625.125-.125L5 8.5l.125-.125-.1875.1875m20.375 2.25L25.25 10.75l-.1875-.1875-.1875-.1875.125.125.25.25.125.125-.0625-.0625" fill="#a4b8fa"/><path d="M11 7.5q0-.5.5-.5h1q.5 0 .5.5t.5.5.5.5.5.5.5.5.5.5.5.5.5.5.5.5.5.5.5.5.5.5.5.5.5.5.5.5.5.5h1q.5 0 .5-.5t.5-.5.5-.5.5-.5.5-.5.5-.5q.5 0 .375-.375T25 11l.25-.25.25.25.5.5.5.5.5.5.5.5.5.5.5.5q.25.25.375.625l.25.75q.125.375.375.625l.5.5.5.5q.25.25.375.625T31 18.5v4q0 .5-.125.875T30.5 24l-.5.5-.5.5-.5.5-.5.5-.5.5q-.25.25-.625.375l-.75.25-.375.125.2813-.0938.2812-.0937-.1875.0625q-.1875.0625-.3438.1563l-.1562.0937.0781-.0469.0782-.0468-.2657-.2657q-.2656-.2656-.6406-.1406Q25 27 24.5 27h-3q-.5 0-.5-.5t-.5-.5h-1q-.5 0-.5-.5t-.5-.5-.5-.5-.5-.5-.5-.5-.5-.5-.5-.5-.5-.5-.5-.5-.5-.5-.5-.5-.5-.5-.5-.5-.5-.5-.5-.5-.5-.5-.5-.5-.5-.5-.5-.5-.5-.5-.5-.5-.5-.5-.5-.5-.5-.5-.5-.5-.5-.5-.5-.5-.5-.5-.5-.5-.5-.5q-.5 0-.375-.375T4 10l-.25-.25L4 9.5l.5-.5.25-.25L5 9q.25.25.125.625T5.5 10q.5 0 .5.5t.5.5.5.5.5.5.5.5.5.5.5.5.5.5.5.5.5.5.5.5.5.5.5.5.5.5.5.5.5.5.5.5.5.5h2q.5 0 .5-.5t.5-.5.5-.5v-1q0-.5-.5-.5t-.5-.5-.5-.5-.5-.5-.5-.5-.5-.5-.5-.5-.5-.5-.5-.5-.5-.5-.5-.5-.5-.5-.5-.5-.5-.5-.5-.5-.5-.5q0-.5.5-.5t.5-.5M4.8125 8.6875L4.75 8.75l-.1875.1875-.1875.1875L4.5 9l.25-.25.125-.125-.0625.0625m-.875.875L3.75 9.75l-.0625.0625-.0625.0625.125-.125L4 9.5l.125-.125-.1875.1875M20.5 22q.5 0 .5-.5t.5-.5.5-.5v-1q0-.5-.5-.5t-.5-.5-.5-.5h-1q-.5 0-.5.5t-.5.5-.5.5v2q0 .5.5.5h2m7-1q.5 0 .5-.5t.5-.5.5-.5.5-.5.5-.5q0-.5-.125-.875t-.5-.5-.5-.5-.5-.5Q28 16 28 15.5t-.5-.5-.5-.5-.5-.5h-1q-.5 0-.5.5t-.5.5-.5.5-.5.5-.5.5v1q0 .5.5.5t.5.5.5.5.5.5.5.5.5.5.5.5h1m-2.0625-10.0625L25.25 10.75l-.0625-.0625-.0625-.0625.125.125.25.25.125.125-.1875-.1875" fill="#919fe7"/><path d="M3 10.5l.5-.5.25-.25L4 10q.25.25.125.625T4.5 11q.5 0 .5.5t.5.5.5.5.5.5.5.5.5.5.5.5.5.5.5.5.5.5.5.5.5.5.5.5.5.5.5.5.5.5.5.5.5.5.5.5.5.5.5.5.5.5.5.5.5.5.5.5.5.5.5.5.5.5.5.5.5.5h1q.5 0 .5.5t.5.5h3q.5 0 .875-.125t.6406.1406l.2657.2657.078-.047.0782-.0468-.1562.0938Q26.125 27.375 26 27.5l-.125.125.1875-.1875.1875-.1875-.25.25-.5.5-.5.5-.5.5-.5.5-.5.5-.5.5q-.25.25-.625.375T21.5 31h-5q-.5 0-.875-.125T15 30.5l-.5-.5-.5-.5-.5-.5-.5-.5-.5-.5-.5-.5-.5-.5-.5-.5-.5-.5-.5-.5-.5-.5-.5-.5-.5-.5-.5-.5-.5-.5-.5-.5-.5-.5-.5-.5-.5-.5-.5-.5-.5-.5-.5-.5-.5-.5-.5-.5-.5-.5-.5-.5-.5-.5q-.25-.25-.375-.625T1 15.5v-1-1q0-.5.125-.875T1.5 12l.5-.5.5-.5.5-.5m.8125-.8125L3.75 9.75l-.1875.1875-.1875.1875L3.5 10l.25-.25.125-.125-.0625.0625" fill="#7575c8"/><path d="M25 14.5q0-.5.5-.5h1q.5 0 .5.5t.5.5.5.5q0 .5.375.625t.5.5.5.5.5.5Q30 18 30 18.5t-.5.5-.5.5-.5.5-.5.5-.5.5h-1q-.5 0-.5-.5t-.5-.5-.5-.5-.5-.5-.5-.5-.5-.5-.5-.5v-1q0-.5.5-.5t.5-.5.5-.5.5-.5M19 18.5q0-.5.5-.5h1q.5 0 .5.5t.5.5.5.5v1q0 .5-.5.5t-.5.5-.5.5h-2q-.5 0-.5-.5v-1-1q0-.5.5-.5t.5-.5" fill="#a4b8fa"/></svg>

<?xml version="1.0" encoding="UTF-8" standalone="no"?>
<!-- Created with Inkscape (http://www.inkscape.org/) -->

<svg
   xmlns:dc="http://purl.org/dc/elements/1.1/"
   xmlns:cc="http://creativecommons.org/ns#"
   xmlns:rdf="http://www.w3.org/1999/02/22-rdf-syntax-ns#"
   xmlns:svg="http://www.w3.org/2000/svg"
   xmlns="http://www.w3.org/2000/svg"
   xmlns:sodipodi="http://sodipodi.sourceforge.net/DTD/sodipodi-0.dtd"
   xmlns:inkscape="http://www.inkscape.org/namespaces/inkscape"
   version="1.1"
   id="svg12035"
   width="32"
   height="32"
   viewBox="0 0 32 32"
   sodipodi:docname="titanium.svg"
   inkscape:version="0.92.5 (2060ec1f9f, 2020-04-08)">
  <metadata
     id="metadata12041">
    <rdf:RDF>
      <cc:Work
         rdf:about="">
        <dc:format>image/svg+xml</dc:format>
        <dc:type
           rdf:resource="http://purl.org/dc/dcmitype/StillImage" />
        <dc:title></dc:title>
      </cc:Work>
    </rdf:RDF>
  </metadata>
  <defs
     id="defs12039" />
  <sodipodi:namedview
     pagecolor="#ffffff"
     bordercolor="#666666"
     borderopacity="1"
     objecttolerance="10"
     gridtolerance="10"
     guidetolerance="10"
     inkscape:pageopacity="0"
     inkscape:pageshadow="2"
     inkscape:window-width="1366"
     inkscape:window-height="705"
     id="namedview12037"
     showgrid="false"
     inkscape:zoom="7.375"
     inkscape:cx="16"
     inkscape:cy="16"
     inkscape:window-x="-8"
     inkscape:window-y="-8"
     inkscape:window-maximized="1"
     inkscape:current-layer="svg12035" />
  <g
     transform="translate(0 0)"
     id="g12600">
    <path
       style="fill:#000000;fill-opacity:0"
       d="M 0,0.5 V 0 H 0.5 1 1.5 2 2.5 3 3.5 4 4.5 5 5.5 6 6.5 7 7.5 8 8.5 9 9.5 10 10.5 11 11.5 12 12.5 13 13.5 14 14.5 15 15.5 16 16.5 17 17.5 18 18.5 19 19.5 20 20.5 21 21.5 22 22.5 23 23.5 24 24.5 25 25.5 26 26.5 27 27.5 28 28.5 29 29.5 30 30.5 31 31.5 32 V 0.5 1 1.5 2 2.5 3 3.5 4 4.5 5 5.5 6 6.5 7 7.5 8 8.5 9 9.5 10 10.5 11 11.5 12 12.5 13 13.5 14 14.5 15 15.5 16 16.5 17 17.5 18 18.5 19 19.5 20 20.5 21 21.5 22 22.5 23 23.5 24 24.5 25 25.5 26 26.5 27 27.5 28 28.5 29 29.5 30 30.5 31 31.5 32 H 31.5 31 30.5 30 29.5 29 28.5 28 27.5 27 26.5 26 25.5 25 24.5 24 23.5 23 22.5 22 21.5 21 20.5 20 19.5 19 18.5 18 17.5 17 16.5 16 15.5 15 14.5 14 13.5 13 12.5 12 11.5 11 10.5 10 9.5 9 8.5 8 7.5 7 6.5 6 5.5 5 4.5 4 3.5 3 2.5 2 1.5 1 0.5 0 V 31.5 31 30.5 30 29.5 29 28.5 28 27.5 27 26.5 26 25.5 25 24.5 24 23.5 23 22.5 22 21.5 21 20.5 20 19.5 19 18.5 18 17.5 17 16.5 16 15.5 15 14.5 14 13.5 13 12.5 12 11.5 11 10.5 10 9.5 9 8.5 8 7.5 7 6.5 6 5.5 5 4.5 4 3.5 3 2.5 2 1.5 1 0.5 M 21.5,31 Q 22,31 22.375,30.875 22.75,30.75 23,30.5 23.25,30.25 23.5,30 23.75,29.75 24,29.5 24.25,29.25 24.5,29 24.75,28.75 25,28.5 25.25,28.25 25.5,28 25.75,27.75 26,27.5 26.25,27.25 26.625,27.125 27,27 27.375,26.875 27.75,26.75 28,26.5 28.25,26.25 28.5,26 28.75,25.75 29,25.5 29.25,25.25 29.5,25 29.75,24.75 30,24.5 30.25,24.25 30.5,24 30.75,23.75 30.875,23.375 31,23 31,22.5 q 0,-0.5 0,-1 0,-0.5 0,-1 0,-0.5 0,-1 0,-0.5 0,-1 Q 31,18 30.875,17.625 30.75,17.25 30.5,17 30.25,16.75 30,16.5 29.75,16.25 29.5,16 29.25,15.75 29.125,15.375 29,15 28.875,14.625 28.75,14.25 28.5,14 28.25,13.75 28,13.5 27.75,13.25 27.5,13 27.25,12.75 27,12.5 26.75,12.25 26.5,12 26.25,11.75 26,11.5 25.75,11.25 25.5,11 25.25,10.75 25,10.5 24.75,10.25 24.5,10 24.25,9.75 24,9.5 23.75,9.25 23.5,9 23.25,8.75 23,8.5 22.75,8.25 22.5,8 22.25,7.75 22,7.5 21.75,7.25 21.5,7 21.25,6.75 21,6.5 20.75,6.25 20.5,6 20.25,5.75 20,5.5 19.75,5.25 19.5,5 19.25,4.75 19,4.5 18.75,4.25 18.5,4 18.25,3.75 18,3.5 17.75,3.25 17.5,3 17.25,2.75 17,2.5 16.75,2.25 16.5,2 16.25,1.75 16,1.5 15.75,1.25 15.375,1.125 15,1 14.5,1 14,1 13.5,1 13,1 12.625,1.125 12.25,1.25 12,1.5 11.75,1.75 11.5,2 11.25,2.25 11,2.5 10.75,2.75 10.5,3 10.25,3.25 10,3.5 9.75,3.75 9.5,4 9.25,4.25 9,4.5 8.75,4.75 8.5,5 8.25,5.25 8,5.5 7.75,5.75 7.5,6 7.25,6.25 7,6.5 6.75,6.75 6.5,7 6.25,7.25 6,7.5 5.75,7.75 5.5,8 5.25,8.25 5,8.5 4.75,8.75 4.5,9 4.25,9.25 4,9.5 3.75,9.75 3.5,10 3.25,10.25 3,10.5 2.75,10.75 2.5,11 2.25,11.25 2,11.5 1.75,11.75 1.5,12 1.25,12.25 1.125,12.625 1,13 1,13.5 1,14 1,14.5 1,15 1,15.5 1,16 1.125,16.375 1.25,16.75 1.5,17 q 0.25,0.25 0.5,0.5 0.25,0.25 0.5,0.5 0.25,0.25 0.5,0.5 0.25,0.25 0.5,0.5 0.25,0.25 0.5,0.5 0.25,0.25 0.5,0.5 0.25,0.25 0.5,0.5 0.25,0.25 0.5,0.5 0.25,0.25 0.5,0.5 0.25,0.25 0.5,0.5 0.25,0.25 0.5,0.5 0.25,0.25 0.5,0.5 0.25,0.25 0.5,0.5 0.25,0.25 0.5,0.5 0.25,0.25 0.5,0.5 0.25,0.25 0.5,0.5 0.25,0.25 0.5,0.5 0.25,0.25 0.5,0.5 0.25,0.25 0.5,0.5 0.25,0.25 0.5,0.5 0.25,0.25 0.5,0.5 0.25,0.25 0.5,0.5 0.25,0.25 0.5,0.5 0.25,0.25 0.5,0.5 0.25,0.25 0.5,0.5 0.25,0.25 0.5,0.5 0.25,0.25 0.5,0.5 0.25,0.25 0.625,0.375 Q 16,31 16.5,31 q 0.5,0 1,0 0.5,0 1,0 0.5,0 1,0 0.5,0 1,0 0.5,0 1,0"
       id="path12588" />
    <path
       style="fill:#a4b8fa;fill-opacity:1"
       d="M 12,1.5 Q 12.25,1.25 12.625,1.125 13,1 13.5,1 14,1 14.5,1 15,1 15.375,1.125 15.75,1.25 16,1.5 q 0.25,0.25 0.5,0.5 0.25,0.25 0.5,0.5 0.25,0.25 0.5,0.5 0.25,0.25 0.5,0.5 0.25,0.25 0.5,0.5 0.25,0.25 0.5,0.5 0.25,0.25 0.5,0.5 0.25,0.25 0.5,0.5 0.25,0.25 0.5,0.5 0.25,0.25 0.5,0.5 0.25,0.25 0.5,0.5 0.25,0.25 0.5,0.5 0.25,0.25 0.5,0.5 0.25,0.25 0.5,0.5 0.25,0.25 0.5,0.5 0.25,0.25 0.5,0.5 0.25,0.25 0.5,0.5 0.25,0.25 0.5,0.5 L 25.25,10.75 25,11 Q 24.75,11.25 24.875,11.625 25,12 24.5,12 24,12 24,12.5 24,13 23.5,13 23,13 23,13.5 23,14 22.5,14 22,14 22,14.5 22,15 21.5,15 21,15 20.5,15 20,15 20,14.5 20,14 19.5,14 19,14 19,13.5 19,13 18.5,13 18,13 18,12.5 18,12 17.5,12 17,12 17,11.5 17,11 16.5,11 16,11 16,10.5 16,10 15.5,10 15,10 15,9.5 15,9 14.5,9 14,9 14,8.5 14,8 13.5,8 13,8 13,7.5 13,7 12.5,7 12,7 11.5,7 11,7 11,7.5 11,8 10.5,8 10,8 10,8.5 10,9 10.5,9 11,9 11,9.5 11,10 11.5,10 12,10 12,10.5 12,11 12.5,11 13,11 13,11.5 13,12 13.5,12 14,12 14,12.5 14,13 14.5,13 15,13 15,13.5 15,14 15.5,14 16,14 16,14.5 16,15 16.5,15 17,15 17,15.5 17,16 17.5,16 18,16 18,16.5 18,17 18,17.5 18,18 17.5,18 17,18 17,18.5 17,19 16.5,19 16,19 15.5,19 15,19 14.5,19 14,19 14,18.5 14,18 13.5,18 13,18 13,17.5 13,17 12.5,17 12,17 12,16.5 12,16 11.5,16 11,16 11,15.5 11,15 10.5,15 10,15 10,14.5 10,14 9.5,14 9,14 9,13.5 9,13 8.5,13 8,13 8,12.5 8,12 7.5,12 7,12 7,11.5 7,11 6.5,11 6,11 6,10.5 6,10 5.5,10 5,10 5.125,9.625 5.25,9.25 5,9 L 4.75,8.75 5,8.5 Q 5.25,8.25 5.5,8 5.75,7.75 6,7.5 6.25,7.25 6.5,7 6.75,6.75 7,6.5 7.25,6.25 7.5,6 7.75,5.75 8,5.5 8.25,5.25 8.5,5 8.75,4.75 9,4.5 9.25,4.25 9.5,4 9.75,3.75 10,3.5 10.25,3.25 10.5,3 10.75,2.75 11,2.5 11.25,2.25 11.5,2 11.75,1.75 12,1.5 M 4.9375,8.5625 4.75,8.75 4.6875,8.8125 4.625,8.875 4.75,8.75 Q 4.875,8.625 5,8.5 L 5.125,8.375 4.9375,8.5625 m 20.375,2.25 L 25.25,10.75 25.0625,10.5625 24.875,10.375 25,10.5 q 0.125,0.125 0.25,0.25 l 0.125,0.125 -0.0625,-0.0625"
       id="path12590" />
    <path
       style="fill:#919fe7;fill-opacity:1"
       d="M 11,7.5 Q 11,7 11.5,7 12,7 12.5,7 13,7 13,7.5 13,8 13.5,8 14,8 14,8.5 14,9 14.5,9 15,9 15,9.5 15,10 15.5,10 16,10 16,10.5 16,11 16.5,11 17,11 17,11.5 17,12 17.5,12 18,12 18,12.5 18,13 18.5,13 19,13 19,13.5 19,14 19.5,14 20,14 20,14.5 20,15 20.5,15 21,15 21.5,15 22,15 22,14.5 22,14 22.5,14 23,14 23,13.5 23,13 23.5,13 24,13 24,12.5 24,12 24.5,12 25,12 24.875,11.625 24.75,11.25 25,11 L 25.25,10.75 25.5,11 q 0.25,0.25 0.5,0.5 0.25,0.25 0.5,0.5 0.25,0.25 0.5,0.5 0.25,0.25 0.5,0.5 0.25,0.25 0.5,0.5 0.25,0.25 0.5,0.5 0.25,0.25 0.375,0.625 Q 29,15 29.125,15.375 29.25,15.75 29.5,16 q 0.25,0.25 0.5,0.5 0.25,0.25 0.5,0.5 0.25,0.25 0.375,0.625 Q 31,18 31,18.5 q 0,0.5 0,1 0,0.5 0,1 0,0.5 0,1 0,0.5 0,1 0,0.5 -0.125,0.875 Q 30.75,23.75 30.5,24 30.25,24.25 30,24.5 29.75,24.75 29.5,25 29.25,25.25 29,25.5 28.75,25.75 28.5,26 28.25,26.25 28,26.5 27.75,26.75 27.375,26.875 27,27 26.625,27.125 L 26.25,27.25 26.53125,27.15625 26.8125,27.0625 26.625,27.125 q -0.1875,0.0625 -0.34375,0.15625 L 26.125,27.375 l 0.07813,-0.04687 0.07813,-0.04687 -0.265625,-0.265625 Q 25.75,26.75 25.375,26.875 25,27 24.5,27 q -0.5,0 -1,0 -0.5,0 -1,0 -0.5,0 -1,0 Q 21,27 21,26.5 21,26 20.5,26 20,26 19.5,26 19,26 19,25.5 19,25 18.5,25 18,25 18,24.5 18,24 17.5,24 17,24 17,23.5 17,23 16.5,23 16,23 16,22.5 16,22 15.5,22 15,22 15,21.5 15,21 14.5,21 14,21 14,20.5 14,20 13.5,20 13,20 13,19.5 13,19 12.5,19 12,19 12,18.5 12,18 11.5,18 11,18 11,17.5 11,17 10.5,17 10,17 10,16.5 10,16 9.5,16 9,16 9,15.5 9,15 8.5,15 8,15 8,14.5 8,14 7.5,14 7,14 7,13.5 7,13 6.5,13 6,13 6,12.5 6,12 5.5,12 5,12 5,11.5 5,11 4.5,11 4,11 4.125,10.625 4.25,10.25 4,10 L 3.75,9.75 4,9.5 Q 4.25,9.25 4.5,9 L 4.75,8.75 5,9 Q 5.25,9.25 5.125,9.625 5,10 5.5,10 6,10 6,10.5 6,11 6.5,11 7,11 7,11.5 7,12 7.5,12 8,12 8,12.5 8,13 8.5,13 9,13 9,13.5 9,14 9.5,14 q 0.5,0 0.5,0.5 0,0.5 0.5,0.5 0.5,0 0.5,0.5 0,0.5 0.5,0.5 0.5,0 0.5,0.5 0,0.5 0.5,0.5 0.5,0 0.5,0.5 0,0.5 0.5,0.5 0.5,0 0.5,0.5 0,0.5 0.5,0.5 0.5,0 1,0 0.5,0 1,0 Q 17,19 17,18.5 17,18 17.5,18 18,18 18,17.5 18,17 18,16.5 18,16 17.5,16 17,16 17,15.5 17,15 16.5,15 16,15 16,14.5 16,14 15.5,14 15,14 15,13.5 15,13 14.5,13 14,13 14,12.5 14,12 13.5,12 13,12 13,11.5 13,11 12.5,11 12,11 12,10.5 12,10 11.5,10 11,10 11,9.5 11,9 10.5,9 10,9 10,8.5 10,8 10.5,8 11,8 11,7.5 M 4.8125,8.6875 4.75,8.75 4.5625,8.9375 4.375,9.125 4.5,9 Q 4.625,8.875 4.75,8.75 L 4.875,8.625 4.8125,8.6875 M 3.9375,9.5625 3.75,9.75 3.6875,9.8125 3.625,9.875 3.75,9.75 Q 3.875,9.625 4,9.5 L 4.125,9.375 3.9375,9.5625 M 20.5,22 Q 21,22 21,21.5 21,21 21.5,21 22,21 22,20.5 22,20 22,19.5 22,19 21.5,19 21,19 21,18.5 21,18 20.5,18 20,18 19.5,18 19,18 19,18.5 19,19 18.5,19 18,19 18,19.5 q 0,0.5 0,1 0,0.5 0,1 0,0.5 0.5,0.5 0.5,0 1,0 0.5,0 1,0 m 7,-1 Q 28,21 28,20.5 28,20 28.5,20 29,20 29,19.5 29,19 29.5,19 30,19 30,18.5 30,18 29.875,17.625 29.75,17.25 29.375,17.125 29,17 28.875,16.625 28.75,16.25 28.375,16.125 28,16 28,15.5 28,15 27.5,15 27,15 27,14.5 27,14 26.5,14 26,14 25.5,14 25,14 25,14.5 25,15 24.5,15 24,15 24,15.5 24,16 23.5,16 23,16 23,16.5 q 0,0.5 0,1 0,0.5 0.5,0.5 0.5,0 0.5,0.5 0,0.5 0.5,0.5 0.5,0 0.5,0.5 0,0.5 0.5,0.5 0.5,0 0.5,0.5 0,0.5 0.5,0.5 0.5,0 1,0 M 25.4375,10.9375 25.25,10.75 25.1875,10.6875 25.125,10.625 25.25,10.75 q 0.125,0.125 0.25,0.25 l 0.125,0.125 -0.1875,-0.1875"
       id="path12592" />
    <path
       style="fill:#7575c8;fill-opacity:1"
       d="M 3,10.5 Q 3.25,10.25 3.5,10 L 3.75,9.75 4,10 Q 4.25,10.25 4.125,10.625 4,11 4.5,11 5,11 5,11.5 5,12 5.5,12 6,12 6,12.5 6,13 6.5,13 7,13 7,13.5 7,14 7.5,14 8,14 8,14.5 8,15 8.5,15 9,15 9,15.5 9,16 9.5,16 q 0.5,0 0.5,0.5 0,0.5 0.5,0.5 0.5,0 0.5,0.5 0,0.5 0.5,0.5 0.5,0 0.5,0.5 0,0.5 0.5,0.5 0.5,0 0.5,0.5 0,0.5 0.5,0.5 0.5,0 0.5,0.5 0,0.5 0.5,0.5 0.5,0 0.5,0.5 0,0.5 0.5,0.5 0.5,0 0.5,0.5 0,0.5 0.5,0.5 0.5,0 0.5,0.5 0,0.5 0.5,0.5 0.5,0 0.5,0.5 0,0.5 0.5,0.5 0.5,0 0.5,0.5 0,0.5 0.5,0.5 0.5,0 1,0 0.5,0 0.5,0.5 0,0.5 0.5,0.5 0.5,0 1,0 0.5,0 1,0 0.5,0 1,0 0.5,0 0.875,-0.125 0.375,-0.125 0.640625,0.140625 l 0.265625,0.265625 0.07813,-0.04687 0.07813,-0.04687 -0.15625,0.09375 Q 26.125,27.375 26,27.5 L 25.875,27.625 26.0625,27.4375 26.25,27.25 26,27.5 Q 25.75,27.75 25.5,28 25.25,28.25 25,28.5 24.75,28.75 24.5,29 24.25,29.25 24,29.5 23.75,29.75 23.5,30 23.25,30.25 23,30.5 22.75,30.75 22.375,30.875 22,31 21.5,31 q -0.5,0 -1,0 -0.5,0 -1,0 -0.5,0 -1,0 -0.5,0 -1,0 -0.5,0 -1,0 Q 16,31 15.625,30.875 15.25,30.75 15,30.5 14.75,30.25 14.5,30 14.25,29.75 14,29.5 13.75,29.25 13.5,29 13.25,28.75 13,28.5 12.75,28.25 12.5,28 12.25,27.75 12,27.5 11.75,27.25 11.5,27 11.25,26.75 11,26.5 10.75,26.25 10.5,26 10.25,25.75 10,25.5 9.75,25.25 9.5,25 9.25,24.75 9,24.5 8.75,24.25 8.5,24 8.25,23.75 8,23.5 7.75,23.25 7.5,23 7.25,22.75 7,22.5 6.75,22.25 6.5,22 6.25,21.75 6,21.5 5.75,21.25 5.5,21 5.25,20.75 5,20.5 4.75,20.25 4.5,20 4.25,19.75 4,19.5 3.75,19.25 3.5,19 3.25,18.75 3,18.5 2.75,18.25 2.5,18 2.25,17.75 2,17.5 1.75,17.25 1.5,17 1.25,16.75 1.125,16.375 1,16 1,15.5 1,15 1,14.5 1,14 1,13.5 1,13 1.125,12.625 1.25,12.25 1.5,12 1.75,11.75 2,11.5 2.25,11.25 2.5,11 2.75,10.75 3,10.5 M 3.8125,9.6875 3.75,9.75 3.5625,9.9375 3.375,10.125 3.5,10 Q 3.625,9.875 3.75,9.75 L 3.875,9.625 3.8125,9.6875"
       id="path12594" />
    <path
       style="fill:#a4b8fa;fill-opacity:1"
       d="m 25,14.5 q 0,-0.5 0.5,-0.5 0.5,0 1,0 0.5,0 0.5,0.5 0,0.5 0.5,0.5 0.5,0 0.5,0.5 0,0.5 0.375,0.625 0.375,0.125 0.5,0.5 0.125,0.375 0.5,0.5 0.375,0.125 0.5,0.5 Q 30,18 30,18.5 30,19 29.5,19 29,19 29,19.5 29,20 28.5,20 28,20 28,20.5 28,21 27.5,21 27,21 26.5,21 26,21 26,20.5 26,20 25.5,20 25,20 25,19.5 25,19 24.5,19 24,19 24,18.5 24,18 23.5,18 23,18 23,17.5 23,17 23,16.5 23,16 23.5,16 24,16 24,15.5 24,15 24.5,15 25,15 25,14.5"
       id="path12596" />
    <path
       style="fill:#a4b8fa;fill-opacity:1"
       d="m 19,18.5 q 0,-0.5 0.5,-0.5 0.5,0 1,0 0.5,0 0.5,0.5 0,0.5 0.5,0.5 0.5,0 0.5,0.5 0,0.5 0,1 0,0.5 -0.5,0.5 -0.5,0 -0.5,0.5 0,0.5 -0.5,0.5 -0.5,0 -1,0 -0.5,0 -1,0 -0.5,0 -0.5,-0.5 0,-0.5 0,-1 0,-0.5 0,-1 Q 18,19 18.5,19 19,19 19,18.5"
       id="path12598" />
  </g>
</svg>
